icon-themes/sifr_svg/cmd/sc_insertmasterpage.svg

<svg viewBox="0 0 16 16" xmlns="http://www.w3.org/2000/svg"><path d="m1 3v10h6v-2h-4v-3h4c0-.554.446-1 1-1h-5v-2h10v2h2v-4zm8 5c-.554 0-1 .446-1 1v6c0 .554.446 1 1 1h6c.554 0 1-.446 1-1v-6c0-.554-.446-1-1-1zm2 1h2v2h2v2h-2v2h-2v-2h-2v-2h2z" fill="#555753"/></svg>

<svg xmlns="http://www.w3.org/2000/svg" viewBox="0 0 16 16">
  <path
     style="fill:#555753"
     d="M 1 3 L 1 13 L 7 13 L 7 11 L 3 11 L 3 8 L 7 8 C 7 7.446 7.446 7 8 7 L 3 7 L 3 5 L 13 5 L 13 7 L 15 7 L 15 3 L 1 3 z M 9 8 C 8.446 8 8 8.446 8 9 L 8 15 C 8 15.554 8.446 16 9 16 L 15 16 C 15.554 16 16 15.554 16 15 L 16 9 C 16 8.446 15.554 8 15 8 L 9 8 z M 11 9 L 13 9 L 13 11 L 15 11 L 15 13 L 13 13 L 13 15 L 11 15 L 11 13 L 9 13 L 9 11 L 11 11 L 11 9 z "
     />
</svg>
